svg/u1f198.svg

<svg viewBox="0 0 128 128" xmlns="http://www.w3.org/2000/svg">
  <g>
    <path d="M116,4H12c-4.42,0-8,3.58-8,8v104c0,4.42,3.58,8,8,8h104c4.42,0,8-3.58,8-8V12 C124,7.58,120.42,4,116,4z" fill="#CC3333"/>
    <path d="M109.7,4H11.5C7.37,4.03,4.03,7.37,4,11.5v97.9c-0.01,4.14,3.34,7.49,7.48,7.5c0.01,0,0.01,0,0.02,0 h98.1c4.14,0.01,7.49-3.34,7.5-7.48c0-0.01,0-0.01,0-0.02V11.5c0.09-4.05-3.13-7.41-7.18-7.5C109.85,4,109.77,4,109.7,4z" fill="#F44336"/>
    <path d="M39.7,12.9c0-2.3-1.6-3-10.8-2.7c-7.7,0.3-11.5,1.2-13.8,4s-2.9,3.5-3,10.3c0,4.8,0,10.3,2.5,10.3 c3.4,0,3.4-5.9,6.2-10.3C26.2,15.8,39.7,15.9,39.7,12.9z" fill="#FF8A80"/>
  </g>
  <g>
    <path d="M40.48,77.11c0,4.98-1.45,8.91-4.34,11.78c-2.89,2.87-6.91,4.3-12.07,4.3 c-4.75,0-8.95-1.11-12.6-3.32V79c3,1.66,5.54,2.83,7.62,3.51c2.08,0.68,3.98,1.02,5.71,1.02c2.07,0,3.66-0.49,4.76-1.47 c1.11-0.98,1.66-2.44,1.66-4.38c0-1.08-0.24-2.04-0.73-2.89c-0.49-0.84-1.2-1.65-2.15-2.44c-0.94-0.78-2.87-2.03-5.77-3.74 c-2.72-1.58-4.76-3.11-6.12-4.57c-1.36-1.46-2.45-3.16-3.26-5.1c-0.81-1.94-1.22-4.2-1.22-6.79c0-4.88,1.33-8.72,4-11.51 c2.67-2.79,6.36-4.19,11.06-4.19c2.31,0,4.52,0.34,6.62,1.02c2.1,0.68,4.3,1.64,6.59,2.87l-3.04,9.1 c-2.37-1.21-4.34-2.05-5.89-2.53c-1.55-0.48-3.08-0.72-4.58-0.72c-1.79,0-3.16,0.52-4.11,1.55c-0.95,1.03-1.43,2.38-1.43,4.04 c0,1.03,0.19,1.93,0.58,2.7c0.38,0.77,1,1.51,1.84,2.23c0.84,0.72,2.84,2.01,5.98,3.87c4.16,2.47,7.01,4.94,8.55,7.42 C39.71,70.48,40.48,73.51,40.48,77.11z" fill="#FAFAFA"/>
    <path d="M81.22,64.77c0,9.14-1.66,16.16-4.97,21.06c-3.32,4.91-8.07,7.36-14.26,7.36s-10.94-2.45-14.26-7.36 c-3.32-4.91-4.97-11.95-4.97-21.14s1.66-16.2,4.99-21.05c3.33-4.84,8.09-7.27,14.3-7.27c6.21,0,10.96,2.44,14.25,7.32 C79.58,48.59,81.22,55.61,81.22,64.77z M51.73,64.77c0,6.17,0.86,10.81,2.57,13.93c1.71,3.12,4.27,4.68,7.68,4.68 c6.84,0,10.25-6.2,10.25-18.61c0-12.43-3.4-18.65-10.2-18.65c-3.41,0-5.98,1.57-7.71,4.7C52.6,53.95,51.73,58.6,51.73,64.77z" fill="#FAFAFA"/>
    <path d="M112.1,77.11c0,4.98-1.45,8.91-4.34,11.78c-2.89,2.87-6.91,4.3-12.07,4.3 c-4.75,0-8.95-1.11-12.6-3.32V79c3,1.66,5.54,2.83,7.62,3.51c2.08,0.68,3.98,1.02,5.71,1.02c2.07,0,3.66-0.49,4.76-1.47 c1.11-0.98,1.66-2.44,1.66-4.38c0-1.08-0.24-2.04-0.73-2.89c-0.49-0.84-1.2-1.65-2.15-2.44c-0.94-0.78-2.87-2.03-5.77-3.74 c-2.72-1.58-4.76-3.11-6.12-4.57c-1.36-1.46-2.45-3.16-3.26-5.1c-0.81-1.94-1.22-4.2-1.22-6.79c0-4.88,1.33-8.72,4-11.51 c2.67-2.79,6.36-4.19,11.06-4.19c2.31,0,4.52,0.34,6.62,1.02c2.1,0.68,4.3,1.64,6.59,2.87l-3.04,9.1 c-2.37-1.21-4.34-2.05-5.89-2.53c-1.55-0.48-3.08-0.72-4.58-0.72c-1.79,0-3.16,0.52-4.11,1.55c-0.95,1.03-1.43,2.38-1.43,4.04 c0,1.03,0.19,1.93,0.58,2.7c0.39,0.77,1,1.51,1.84,2.23c0.84,0.72,2.83,2.01,5.98,3.87c4.16,2.47,7.01,4.94,8.55,7.42 C111.32,70.48,112.1,73.51,112.1,77.11z" fill="#FAFAFA"/>
  </g>
</svg>

<svg viewBox="0 0 128 128" xmlns="http://www.w3.org/2000/svg">
  <defs/>
  <path d="M116,4 L12,4 C7.58,4 4,7.58 4,12 L4,116 C4,120.42 7.58,124 12,124 L116,124 C120.42,124 124,120.42 124,116 L124,12 C124,7.58 120.42,4 116,4 Z" fill="#CC3333"/>
  <path d="M109.7,4 L11.5,4 C7.37,4.03 4.03,7.37 4,11.5 L4,109.4 C3.99,113.54 7.34,116.89 11.48,116.9 C11.49,116.9 11.49,116.9 11.5,116.9 L109.6,116.9 C113.74,116.91 117.09,113.56 117.1,109.42 C117.1,109.41 117.1,109.41 117.1,109.4 L117.1,11.5 C117.19,7.45 113.97,4.09 109.92,4 C109.85,4 109.77,4 109.7,4 Z" fill="#F44336"/>
  <path d="M39.7,12.9 C39.7,10.6 38.1,9.9 28.9,10.2 C21.2,10.5 17.4,11.4 15.1,14.2 C12.8,17 12.2,17.7 12.1,24.5 C12.1,29.3 12.1,34.8 14.6,34.8 C18,34.8 18,28.9 20.8,24.5 C26.2,15.8 39.7,15.9 39.7,12.9 Z" fill="#FF8A80"/>
  <path d="M40.48,77.11 C40.48,82.09 39.03,86.02 36.14,88.89 C33.25,91.76 29.23,93.19 24.07,93.19 C19.32,93.19 15.12,92.08 11.47,89.87 L11.47,79 C14.47,80.66 17.01,81.83 19.09,82.51 C21.17,83.19 23.07,83.53 24.8,83.53 C26.87,83.53 28.46,83.04 29.56,82.06 C30.67,81.08 31.22,79.62 31.22,77.68 C31.22,76.6 30.98,75.64 30.49,74.79 C30,73.95 29.29,73.14 28.34,72.35 C27.4,71.57 25.47,70.32 22.57,68.61 C19.85,67.03 17.81,65.5 16.45,64.04 C15.09,62.58 14,60.88 13.19,58.94 C12.38,57 11.97,54.74 11.97,52.15 C11.97,47.27 13.3,43.43 15.97,40.64 C18.64,37.85 22.33,36.45 27.03,36.45 C29.34,36.45 31.55,36.79 33.65,37.47 C35.75,38.15 37.95,39.11 40.24,40.34 L37.2,49.44 C34.83,48.23 32.86,47.39 31.31,46.91 C29.76,46.43 28.23,46.19 26.73,46.19 C24.94,46.19 23.57,46.71 22.62,47.74 C21.67,48.77 21.19,50.12 21.19,51.78 C21.19,52.81 21.38,53.71 21.77,54.48 C22.15,55.25 22.77,55.99 23.61,56.71 C24.45,57.43 26.45,58.72 29.59,60.58 C33.75,63.05 36.6,65.52 38.14,68 C39.71,70.48 40.48,73.51 40.48,77.11 Z" fill="#FAFAFA"/>
  <path d="M81.22,64.77 C81.22,73.91 79.56,80.93 76.25,85.83 C72.93,90.74 68.18,93.19 61.99,93.19 C55.8,93.19 51.05,90.74 47.73,85.83 C44.41,80.92 42.76,73.88 42.76,64.69 C42.76,55.5 44.42,48.49 47.75,43.64 C51.08,38.8 55.84,36.37 62.05,36.37 C68.26,36.37 73.01,38.81 76.3,43.69 C79.58,48.59 81.22,55.61 81.22,64.77 Z M51.73,64.77 C51.73,70.94 52.59,75.58 54.3,78.7 C56.01,81.82 58.57,83.38 61.98,83.38 C68.82,83.38 72.23,77.18 72.23,64.77 C72.23,52.34 68.83,46.12 62.03,46.12 C58.62,46.12 56.05,47.69 54.32,50.82 C52.6,53.95 51.73,58.6 51.73,64.77 Z" fill="#FAFAFA"/>
  <path d="M112.1,77.11 C112.1,82.09 110.65,86.02 107.76,88.89 C104.87,91.76 100.85,93.19 95.69,93.19 C90.94,93.19 86.74,92.08 83.09,89.87 L83.09,79 C86.09,80.66 88.63,81.83 90.71,82.51 C92.79,83.19 94.69,83.53 96.42,83.53 C98.49,83.53 100.08,83.04 101.18,82.06 C102.29,81.08 102.84,79.62 102.84,77.68 C102.84,76.6 102.6,75.64 102.11,74.79 C101.62,73.95 100.91,73.14 99.96,72.35 C99.02,71.57 97.09,70.32 94.19,68.61 C91.47,67.03 89.43,65.5 88.07,64.04 C86.71,62.58 85.62,60.88 84.81,58.94 C84,57 83.59,54.74 83.59,52.15 C83.59,47.27 84.92,43.43 87.59,40.64 C90.26,37.85 93.95,36.45 98.65,36.45 C100.96,36.45 103.17,36.79 105.27,37.47 C107.37,38.15 109.57,39.11 111.86,40.34 L108.82,49.44 C106.45,48.23 104.48,47.39 102.93,46.91 C101.38,46.43 99.85,46.19 98.35,46.19 C96.56,46.19 95.19,46.71 94.24,47.74 C93.29,48.77 92.81,50.12 92.81,51.78 C92.81,52.81 93,53.71 93.39,54.48 C93.78,55.25 94.39,55.99 95.23,56.71 C96.07,57.43 98.06,58.72 101.21,60.58 C105.37,63.05 108.22,65.52 109.76,68 C111.32,70.48 112.1,73.51 112.1,77.11 Z" fill="#FAFAFA"/>
</svg>
